X: 286
T: Benim Yârem Gibi Yâre Bulunmaz
C: Lâtif Ağa
O: Turkey
F: http://compmusic.upf.edu/node/140
N: suzinak-zirgule--sarki--curcuna--benim_yarem--latif_aga
N: makam= suzinak-zirgule
N: form= sarki
N: usul= curcuna = 10/8
M: 10/8
L: 1/16
K: C _1/4B _7/8e _7/8A ^f
Q: 1/4=192
%%MIDI tuningsystem comma53
d4 c2d4d4e4g2  | {g}f4 e2e2 d2d2 c2d2 {e}c2{d}B2  | \
w:  *  Be nim  yâ  |  *  rem  *  gi *  bi  *  yâ  | 
.B14.B2 .c2.d2  | e4 d2e4e4d4^c2  | 
w:  re  SAZ  |  *  ah   | 
d4 e2f4g4f2 e2d2  | d4 e2d2 c2B2 A2G3cBc  | \
w:  ah  *  *  bu lun  |  maz   SAZ  | 
d4 c2d4d4e4g2  | 
w:  *  Be nim  yâ  | 
{g}f4 e2e2 d2d2 c2d2 {e}c2{d}B2  | \
w:  *  rem  *  gi *  bi  *  yâ  | 
.B14.B2 .c2.d2  | e4 d2e4e4d4^c2  | d4 e2f4g4f2 e2d2  | 
w:  re  SAZ  |  *  ah   |  ah  *  *  bu lun  | 
d4 e2d2 c2B2 c2d2 e2f2  | g4 f2g4{g}b4a4g2  | \
w:  maz   SAZ  |  *  Bu lun *  maz   | 
f8-f2g2 f2e2 d2cB  | 
w:  der  | 
c4 f2e2 d2d2 c2d2 {e}c2{d}B2  | {c}BAB8Bc BAGA Bcd2  | 
w:  *  di me  *  ça  |  *  re  *  *  SAZ  | 
c2{d}cB c2d4B2 A2G6  | c2{d}cB c2d4B2 A2A4G2  | \
w:  ah   |  ah  *  *  *  *  *  bu *  lun  | 
G4 e2d2 c2B2 c2d2 e2f2  | 
w:  maz   SAZ  | 
g4 f2g4{g}b4a4g2  | f8-f2g2 f2e2 d2cB  | \
w:  *  Bu lun *  maz   |  der  | 
c4 f2e2 d2d2 c2d2 {e}c2{d}B2  | 
w:  *  di me  *  ça  | 
{c}BAB8Bc BAGA Bcd2  | c2{d}cB c2d4B2 A2G6  | \
w:  *  re  *  *  SAZ  |  ah   | 
c2{d}cB c2d4B2 A2A4G2  | 
w:  ah  *  *  *  *  *  bu *  lun  | 
G4 _b2=a2 g2f2 g2a6  | z4 g2=a4a8g2  | \
w:  maz   SAZ  |  Ne  mer hem   | 
f4 {g}e2d4f2 g2=a4g2  | c'2_b2 =a2g2 f2f2 e2{f}e4d2  | 
w:  kâr   |  e *  der   | 
d8-d2fe dcd6  | c4 B2c4d4e4d2  | g6g2 =a2f2 e2f2 e2d2  | 
w:  ah   |  ah   |  ne  de  *  te *  sel  | 
d4 e2d2 c2B2 c2d2 e2f2  | g4 f2g4{g}b4a4g2  | \
w:  li   SAZ  |  *  Bu lun *  maz   | 
f8-f2g2 f2e2 d2cB  | 
w:  der  | 
c4 f2e2 d2d2 c2d2 {e}c2{d}B2  | {c}BAB8Bc BAGA Bcd2  | 
w:  *  di me  *  ça  |  *  re  *  *  SAZ  | 
c2{d}cB c2d4B2 A2G6  | c2{d}cB c2d4B2 A2A4G2  | \
w:  ah   |  ah  *  *  *  *  *  bu *  lun  | 
G4 e2d2 c2B2 c2d2 e2f2  | 
w:  maz   SAZ  | 
g4 f2g4{g}b4a4g2  | f8-f2g2 f2e2 d2cB  | \
w:  *  Bu lun *  maz   |  der  | 
c4 f2e2 d2d2 c2d2 {e}c2{d}B2  | 
w:  *  di me  *  ça  | 
{c}BAB8Bc BAGA Bcd2  | c2{d}cB c2d4B2 A2G6  | \
w:  *  re  *  *  SAZ  |  ah   | 
c2{d}cB c2d4B2 A2A4G2  | 
w:  ah  *  *  *  *  *  bu *  lun  | 
G4 |
w:  maz    | 


